X:1
T:The Quiet Hour
T:Harold Green
T:The Quiet Hour
T:Public Domain
C:Harold Green
Z:Public Domain
%%score ( 1 2 ) ( 3 4 )
L:1/8
M:2/2
K:D
V:1 treble 
V:2 treble 
V:3 bass 
V:4 bass 
V:1
 D3 D [CE]2 [CB]2 | [DA]4 [DF]4 | [DF]3 [DF] [D^G]2 [EG]2 x2 | [EA]8 | [Dd]3 [Dd] [FA]2 [E^A]2 | %5
w: 1.~Speak, Lord, in the|While I|wait on Thee; Hushed|my|heart to list- en,|
w: 2.~Speak, O bless- èd|In this|qui- et hour, Let|me|see Thy face, Lord,|
w: 3.~For the words Thou|“They are|life” in- deed; Liv-|ing|Bread from heav- en,|
w: 4.~All to Thee is|I am|not my own; Bliss-|ful,|glad sur- ren- der,|
w: 5.~Fill me with the|Of Thy|glo- rious will; All|Thine|own good plea- sure|
w: 6.~Like “a wa- tered|Full of|frag- rance rare Ling-|’ring|in Thy pre- sence|
 [DB]4 [DB]4 | [DA]3 [DF] [CG]2 [CE]2 | D8 |] %8
w: In ex-|pect- an- cy. *||
w: Feel Thy|touch of power. *||
w: Now my|spir- it feed! *||
w: I am|Thine a- lone. *||
w: In my|life ful- fill. *||
w: Let my|life ap- pear. *||
V:2
 D3 D x4 | x8 | x10 | x8 | x8 | x8 | x8 | D8 |] %8
w: still- ness||||||||
w: Mas- ter,||||||||
w: speak- est,||||||||
w: yield- ed,||||||||
w: know- ledge||||||||
w: gar- den”||||||||
V:3
 [D,F,]3 [D,F,] [A,,G,]2 [A,,G,]2 | [D,F,]4 [D,A,]4 | [B,,B,]3 [B,,B,] [E,B,]2 [E,D]2 D,2 | %3
 (A,4 G,4) | [F,A,]3 [F,A,] [F,D]2 [F,C]2 | [G,B,]4 [G,,G,]4 | [A,,F,]3 [A,,F,] [A,,E,]2 [A,,G,]2 | %7
 [D,F,]8 |] %8
V:4
 x8 | x8 | x10 | C8 | x8 | x8 | x8 | x8 |] %8

